X: 20373
M: C
L: 1/8
K: D
z/A/B/c/ |\
f2f>e d>cB>A | A2^G2 A2d2 | c>ec>A B>dB>^G | A2A>A A2 :|
|: z/A/B/c/ |\
d2d>f a>fd>A | B2G>G G2e>f | g2g>f e2d2 | c2A>A A2 z/A/B/c/ |\


